X:1
T:Un Joven Galileo - Intro
C:Diego Rodríguez
S:
M:4/4
L:1/4
Q:1/2=60
K:D
%
%
   DFE | "D"F4 | F2 G2 | "Am"A4 | BA GF | "G"G4- | G2 A2 | "Gm"_B3 A | G2 A2 | "D"GF F2- | F2 F/2E/2 D | "A"E4 | "A+"^E4 |]
%%vskip 0